X:18887
T:Woaf
M:3/4
L:1/8
R:Waltz
O:Germany
K:G
dBd| g2d2d2|d3 e  de|d2 B2 B2| B6| d2 edcB|d2 edcB|B2 A2 A2|!
A6| A2 A2 B2| c3 B A2|B2 B2 c2|d3 c B2 |d2 edcB|d2 edcB|B2 A2 A2|G3||


